Newaita-dark/actions/24/format-indent-more.svg

<svg height="24" viewBox="0 0 24 24" width="24" xmlns="http://www.w3.org/2000/svg"><g fill="#e0e0e0"><path d="m2.480469 5.148438h18.855469c.273437 0 .496093-.222657.496093-.496094v-.992188c0-.273437-.222656-.496094-.496093-.496094h-18.855469c-.273438 0-.496094.222657-.496094.496094v.992188c0 .273437.222656.496094.496094.496094zm0 0"/><path d="m9.425781 21.523438h11.910157c.273437 0 .496093-.222657.496093-.496094v-.996094c0-.273438-.222656-.496094-.496093-.496094h-11.910157c-.273437 0-.496093.222656-.496093.496094v.996094c0 .273437.222656.496094.496093.496094zm0 0"/><path d="m9.425781 16.0625h11.910157c.273437 0 .496093-.21875.496093-.496094v-.992187c0-.273438-.222656-.496094-.496093-.496094h-11.910157c-.273437 0-.496093.222656-.496093.496094v.992187c0 .277344.222656.496094.496093.496094zm0 0"/><path d="m9.425781 10.605469h11.910157c.273437 0 .496093-.222657.496093-.496094v-.992187c0-.273438-.222656-.496094-.496093-.496094h-11.910157c-.273437 0-.496093.222656-.496093.496094v.992187c0 .273437.222656.496094.496093.496094zm0 0"/><path d="m1.984375 18.542969v-6.945313l4.960937 3.472656zm0 0"/></g></svg>

<svg xmlns="http://www.w3.org/2000/svg" xmlns:xlink="http://www.w3.org/1999/xlink" width="24px" height="24px" viewBox="0 0 24 24" version="1.1">
<g id="surface1">
     <defs>
  <style id="current-color-scheme" type="text/css">
   .ColorScheme-Text { color:#eeeeee; } .ColorScheme-Highlight { color:#424242; }
  </style>
 </defs>
<path style="fill:currentColor" class="ColorScheme-Text" d="M 2.480469 5.148438 L 21.335938 5.148438 C 21.609375 5.148438 21.832031 4.925781 21.832031 4.652344 L 21.832031 3.660156 C 21.832031 3.386719 21.609375 3.164062 21.335938 3.164062 L 2.480469 3.164062 C 2.207031 3.164062 1.984375 3.386719 1.984375 3.660156 L 1.984375 4.652344 C 1.984375 4.925781 2.207031 5.148438 2.480469 5.148438 Z M 2.480469 5.148438 "/>
     <defs>
  <style id="current-color-scheme" type="text/css">
   .ColorScheme-Text { color:#eeeeee; } .ColorScheme-Highlight { color:#424242; }
  </style>
 </defs>
<path style="fill:currentColor" class="ColorScheme-Text" d="M 9.425781 21.523438 L 21.335938 21.523438 C 21.609375 21.523438 21.832031 21.300781 21.832031 21.027344 L 21.832031 20.03125 C 21.832031 19.757812 21.609375 19.535156 21.335938 19.535156 L 9.425781 19.535156 C 9.152344 19.535156 8.929688 19.757812 8.929688 20.03125 L 8.929688 21.027344 C 8.929688 21.300781 9.152344 21.523438 9.425781 21.523438 Z M 9.425781 21.523438 "/>
     <defs>
  <style id="current-color-scheme" type="text/css">
   .ColorScheme-Text { color:#eeeeee; } .ColorScheme-Highlight { color:#424242; }
  </style>
 </defs>
<path style="fill:currentColor" class="ColorScheme-Text" d="M 9.425781 16.0625 L 21.335938 16.0625 C 21.609375 16.0625 21.832031 15.84375 21.832031 15.566406 L 21.832031 14.574219 C 21.832031 14.300781 21.609375 14.078125 21.335938 14.078125 L 9.425781 14.078125 C 9.152344 14.078125 8.929688 14.300781 8.929688 14.574219 L 8.929688 15.566406 C 8.929688 15.84375 9.152344 16.0625 9.425781 16.0625 Z M 9.425781 16.0625 "/>
     <defs>
  <style id="current-color-scheme" type="text/css">
   .ColorScheme-Text { color:#eeeeee; } .ColorScheme-Highlight { color:#424242; }
  </style>
 </defs>
<path style="fill:currentColor" class="ColorScheme-Text" d="M 9.425781 10.605469 L 21.335938 10.605469 C 21.609375 10.605469 21.832031 10.382812 21.832031 10.109375 L 21.832031 9.117188 C 21.832031 8.84375 21.609375 8.621094 21.335938 8.621094 L 9.425781 8.621094 C 9.152344 8.621094 8.929688 8.84375 8.929688 9.117188 L 8.929688 10.109375 C 8.929688 10.382812 9.152344 10.605469 9.425781 10.605469 Z M 9.425781 10.605469 "/>
     <defs>
  <style id="current-color-scheme" type="text/css">
   .ColorScheme-Text { color:#eeeeee; } .ColorScheme-Highlight { color:#424242; }
  </style>
 </defs>
<path style="fill:currentColor" class="ColorScheme-Text" d="M 1.984375 18.542969 L 1.984375 11.597656 L 6.945312 15.070312 Z M 1.984375 18.542969 "/>
</g>
</svg>
